bailout.site/trunk/media/images/charts/energy_final_charts/energy_noncompeted_contracts_billions.svg

<?xml version="1.0" encoding="UTF-8" standalone="no"?>
<svg
   xmlns:dc="http://purl.org/dc/elements/1.1/"
   xmlns:cc="http://creativecommons.org/ns#"
   xmlns:rdf="http://www.w3.org/1999/02/22-rdf-syntax-ns#"
   xmlns:svg="http://www.w3.org/2000/svg"
   xmlns="http://www.w3.org/2000/svg"
   xmlns:sodipodi="http://sodipodi.sourceforge.net/DTD/sodipodi-0.dtd"
   xmlns:inkscape="http://www.inkscape.org/namespaces/inkscape"
   height="350"
   version="1.1"
   width="500"
   id="svg2"
   inkscape:version="0.47pre4 r22446"
   sodipodi:docname="energy_noncompeted_contracts_billions.svg"
   inkscape:export-filename="/home/kpwebb/workspace/subsidyscope_main/bailout.site/trunk/media/images/charts/energy_final_charts/energy_noncompeted_contracts_billions.png"
   inkscape:export-xdpi="90"
   inkscape:export-ydpi="90">
  <metadata
     id="metadata73">
    <rdf:RDF>
      <cc:Work
         rdf:about="">
        <dc:format>image/svg+xml</dc:format>
        <dc:type
           rdf:resource="http://purl.org/dc/dcmitype/StillImage" />
        <dc:title />
      </cc:Work>
    </rdf:RDF>
  </metadata>
  <defs
     id="defs71">
    <inkscape:perspective
       sodipodi:type="inkscape:persp3d"
       inkscape:vp_x="0 : 175 : 1"
       inkscape:vp_y="0 : 1000 : 0"
       inkscape:vp_z="500 : 175 : 1"
       inkscape:persp3d-origin="250 : 116.66667 : 1"
       id="perspective75" />
    <inkscape:perspective
       id="perspective2895"
       inkscape:persp3d-origin="0.5 : 0.33333333 : 1"
       inkscape:vp_z="1 : 0.5 : 1"
       inkscape:vp_y="0 : 1000 : 0"
       inkscape:vp_x="0 : 0.5 : 1"
       sodipodi:type="inkscape:persp3d" />
  </defs>
  <sodipodi:namedview
     pagecolor="#ffffff"
     bordercolor="#666666"
     borderopacity="1"
     objecttolerance="10"
     gridtolerance="10"
     guidetolerance="10"
     inkscape:pageopacity="0"
     inkscape:pageshadow="2"
     inkscape:window-width="1920"
     inkscape:window-height="1059"
     id="namedview69"
     showgrid="false"
     inkscape:zoom="1.907168"
     inkscape:cx="196.48403"
     inkscape:cy="234.02174"
     inkscape:window-x="1400"
     inkscape:window-y="0"
     inkscape:window-maximized="1"
     inkscape:current-layer="y_axis" />
  <style
     type="text/css"
     id="style4">
		

.x-axis-path, .y-gridline, .x-notch { fill:none; stroke: #a7a9ac; stroke-width:1; }



.y-gridline { stroke-width: 1; }

.y-axis-path, .y-axis-path2, .x-notch-left, .x-notch-right { display: none;}



.x-axis-label, .data-point-label {font-size: 12px; font-weight:normal; font-family: sans-serif; fill: #58595b; text-anchor:middle;}

.y-axis-label {font-size: 12px; font-family: helvetica; fill: #a7a9ac; text-anchor:end;}



.series-1-line { fill: none; stroke: #bf5004; stroke-width:2; }



.series-2-line { fill: none; stroke: #336699; stroke-width: 2;}

	</style>
  <rect
     height="365.73013"
     width="507.3407"
     x="-3.6703637"
     y="-15.73013"
     id="rect6"
     style="fill:#ffffff" />
  <g
     id="grid"
     transform="translate(40, 40)">
    <g
       class="x-axis"
       id="x_axis">
      <path
         class="x-axis-path"
         d="M 0 255 L 420 255"
         id="path10" />
      <path
         class="x-notch-left"
         d="M 0 255, L 0 265"
         id="path12" />
      <path
         class="x-notch-right"
         d="M 420 255, L 420 265"
         id="path14" />
    </g>
    <g
       class="y-axis"
       id="y_axis">
      <path
         class="y-axis-path"
         d="M 0 255 L 0 0"
         id="path17" />
      <path
         class="y-axis-path-2"
         d="M 420 255 L 420 0"
         id="path19" />
      <path
         class="y-gridline"
         d="M 0 0 L 420 0"
         id="path21" />
      <text
         class="y-axis-label"
         x="-5"
         y="0"
         id="text23"
         style="font-size:12px;text-anchor:end;fill:#a7a9ac;font-family:helvetica">$8.4</text>
      <path
         class="y-gridline"
         d="M 0 42 L 420 42"
         id="path25" />
      <text
         class="y-axis-label"
         x="-5"
         y="42"
         id="text27"
         style="font-size:12px;text-anchor:end;fill:#a7a9ac;font-family:helvetica">$7.0</text>
      <path
         class="y-gridline"
         d="M 0 84 L 420 84"
         id="path29" />
      <text
         class="y-axis-label"
         x="-5"
         y="84"
         id="text31"
         style="font-size:12px;text-anchor:end;fill:#a7a9ac;font-family:helvetica">$5.6</text>
      <path
         class="y-gridline"
         d="M 0 126 L 420 126"
         id="path33" />
      <text
         class="y-axis-label"
         x="-5"
         y="126"
         id="text35"
         style="font-size:12px;text-anchor:end;fill:#a7a9ac;font-family:helvetica">$4.2</text>
      <path
         class="y-gridline"
         d="M 0 168 L 420 168"
         id="path37" />
      <text
         class="y-axis-label"
         x="-5"
         y="168"
         id="text39"
         style="font-size:12px;text-anchor:end;fill:#a7a9ac;font-family:helvetica">$2.8</text>
      <path
         class="y-gridline"
         d="M 0 210 L 420 210"
         id="path41" />
      <text
         class="y-axis-label"
         x="-5"
         y="210"
         id="text43"
         style="font-size:12px;text-anchor:end;fill:#a7a9ac;font-family:helvetica">$1.4</text>
      <text
         xml:space="preserve"
         style="font-size:16px;font-style:normal;font-weight:bold;text-align:center;text-anchor:middle;fill:#000000;fill-opacity:1;stroke:none;font-family:sans;-inkscape-font-specification:Andale Mono Bold"
         x="210.10907"
         y="-37.246464"
         id="text2881"><tspan
           sodipodi:role="line"
           id="tspan2883"
           x="210.10907"
           y="-37.246464">Figure 2: Non-competed Contracts in the Energy Sector</tspan><tspan
           sodipodi:role="line"
           x="210.10907"
           y="-17.246464"
           id="tspan2885">FY2000-2009 ($ billions)</tspan></text>
    </g>
    <g
       id="g45">
      <path
         class="series-1-line"
         d="M 35 23.1818181818 L 73 201.594151366 L 112 184.584515993 L 151 178.943701049 L 190 148.51322636 L 229 123.689923483 L 268 38.061080745 L 307 163.122458531 L 346 103.220407071 L 385 126.307813204"
         id="path47" />
    </g>
    <text
       class="x-axis-label"
       x="35.0"
       y="270"
       id="text49">
			2000
		</text>
    <path
       class="x-notch"
       d="M 73.8888888889 255 L 73.8888888889 260"
       id="path51" />
    <text
       class="x-axis-label"
       x="112.777777778"
       y="270"
       id="text53">
			2002
		</text>
    <path
       class="x-notch"
       d="M 151.666666667 255 L 151.666666667 260"
       id="path55" />
    <text
       class="x-axis-label"
       x="190.555555556"
       y="270"
       id="text57">
			2004
		</text>
    <path
       class="x-notch"
       d="M 229.444444444 255 L 229.444444444 260"
       id="path59" />
    <text
       class="x-axis-label"
       x="268.333333333"
       y="270"
       id="text61">
			2006
		</text>
    <path
       class="x-notch"
       d="M 307.222222222 255 L 307.222222222 260"
       id="path63" />
    <text
       class="x-axis-label"
       x="346.111111111"
       y="270"
       id="text65">
			2008
		</text>
    <path
       class="x-notch"
       d="M 385.0 255 L 385.0 260"
       id="path67" />
    <text
       class="x-axis-label"
       x="192.8856"
       y="289.5296"
       id="text57-6"
       style="font-size:12px;font-weight:normal;text-anchor:middle;fill:#58595b;font-family:sans-serif">Fiscal Year</text>
  </g>
</svg>

<?xml version="1.0" encoding="UTF-8" standalone="no"?>
<svg
   xmlns:dc="http://purl.org/dc/elements/1.1/"
   xmlns:cc="http://creativecommons.org/ns#"
   xmlns:rdf="http://www.w3.org/1999/02/22-rdf-syntax-ns#"
   xmlns:svg="http://www.w3.org/2000/svg"
   xmlns="http://www.w3.org/2000/svg"
   xmlns:sodipodi="http://sodipodi.sourceforge.net/DTD/sodipodi-0.dtd"
   xmlns:inkscape="http://www.inkscape.org/namespaces/inkscape"
   height="350"
   version="1.1"
   width="500"
   id="svg2"
   inkscape:version="0.47pre4 r22446"
   sodipodi:docname="energy_noncompeted_contracts_billions.svg"
   inkscape:export-filename="/home/kpwebb/workspace/subsidyscope_main/bailout.site/trunk/media/images/charts/energy_final_charts/energy_noncompeted_contracts_billions.png"
   inkscape:export-xdpi="90"
   inkscape:export-ydpi="90">
  <metadata
     id="metadata73">
    <rdf:RDF>
      <cc:Work
         rdf:about="">
        <dc:format>image/svg+xml</dc:format>
        <dc:type
           rdf:resource="http://purl.org/dc/dcmitype/StillImage" />
        <dc:title></dc:title>
      </cc:Work>
    </rdf:RDF>
  </metadata>
  <defs
     id="defs71">
    <inkscape:perspective
       sodipodi:type="inkscape:persp3d"
       inkscape:vp_x="0 : 175 : 1"
       inkscape:vp_y="0 : 1000 : 0"
       inkscape:vp_z="500 : 175 : 1"
       inkscape:persp3d-origin="250 : 116.66667 : 1"
       id="perspective75" />
    <inkscape:perspective
       id="perspective2895"
       inkscape:persp3d-origin="0.5 : 0.33333333 : 1"
       inkscape:vp_z="1 : 0.5 : 1"
       inkscape:vp_y="0 : 1000 : 0"
       inkscape:vp_x="0 : 0.5 : 1"
       sodipodi:type="inkscape:persp3d" />
  </defs>
  <sodipodi:namedview
     pagecolor="#ffffff"
     bordercolor="#666666"
     borderopacity="1"
     objecttolerance="10"
     gridtolerance="10"
     guidetolerance="10"
     inkscape:pageopacity="0"
     inkscape:pageshadow="2"
     inkscape:window-width="1400"
     inkscape:window-height="985"
     id="namedview69"
     showgrid="false"
     inkscape:zoom="1.907168"
     inkscape:cx="196.48403"
     inkscape:cy="147.5124"
     inkscape:window-x="0"
     inkscape:window-y="24"
     inkscape:window-maximized="1"
     inkscape:current-layer="svg2" />
  <style
     type="text/css"
     id="style4">
		

.x-axis-path, .y-gridline, .x-notch { fill:none; stroke: #a7a9ac; stroke-width:1; }



.y-gridline { stroke-width: 1; }

.y-axis-path, .y-axis-path2, .x-notch-left, .x-notch-right { display: none;}



.x-axis-label, .data-point-label {font-size: 12px; font-weight:normal; font-family: sans-serif; fill: #58595b; text-anchor:middle;}

.y-axis-label {font-size: 12px; font-family: helvetica; fill: #a7a9ac; text-anchor:end;}



.series-1-line { fill: none; stroke: #bf5004; stroke-width:2; }



.series-2-line { fill: none; stroke: #336699; stroke-width: 2;}

	</style>
  <rect
     height="330.59952"
     width="507.3407"
     x="-3.6703637"
     y="19.400494"
     id="rect6"
     style="fill:#ffffff" />
  <g
     id="x_axis"
     class="x-axis"
     transform="translate(40,40)">
    <path
       style="fill:none;stroke:#a7a9ac;stroke-width:1"
       id="path10"
       d="m 0,255 420,0"
       class="x-axis-path" />
    <path
       style="display:none"
       id="path12"
       d="M 0,255"
       class="x-notch-left" />
    <path
       style="display:none"
       id="path14"
       d="M 420,255"
       class="x-notch-right" />
  </g>
  <g
     id="y_axis"
     class="y-axis"
     transform="translate(40,40)">
    <path
       style="display:none"
       id="path17"
       d="M 0,255 0,0"
       class="y-axis-path" />
    <path
       id="path19"
       d="M 420,255 420,0"
       class="y-axis-path-2" />
    <path
       style="fill:none;stroke:#a7a9ac;stroke-width:1"
       id="path21"
       d="M 0,0 420,0"
       class="y-gridline" />
    <text
       style="font-size:12px;text-anchor:end;fill:#a7a9ac;font-family:helvetica"
       id="text23"
       y="0"
       x="-5"
       class="y-axis-label">$8.4</text>
    <path
       style="fill:none;stroke:#a7a9ac;stroke-width:1"
       id="path25"
       d="m 0,42 420,0"
       class="y-gridline" />
    <text
       style="font-size:12px;text-anchor:end;fill:#a7a9ac;font-family:helvetica"
       id="text27"
       y="42"
       x="-5"
       class="y-axis-label">$7.0</text>
    <path
       style="fill:none;stroke:#a7a9ac;stroke-width:1"
       id="path29"
       d="m 0,84 420,0"
       class="y-gridline" />
    <text
       style="font-size:12px;text-anchor:end;fill:#a7a9ac;font-family:helvetica"
       id="text31"
       y="84"
       x="-5"
       class="y-axis-label">$5.6</text>
    <path
       style="fill:none;stroke:#a7a9ac;stroke-width:1"
       id="path33"
       d="m 0,126 420,0"
       class="y-gridline" />
    <text
       style="font-size:12px;text-anchor:end;fill:#a7a9ac;font-family:helvetica"
       id="text35"
       y="126"
       x="-5"
       class="y-axis-label">$4.2</text>
    <path
       style="fill:none;stroke:#a7a9ac;stroke-width:1"
       id="path37"
       d="m 0,168 420,0"
       class="y-gridline" />
    <text
       style="font-size:12px;text-anchor:end;fill:#a7a9ac;font-family:helvetica"
       id="text39"
       y="168"
       x="-5"
       class="y-axis-label">$2.8</text>
    <path
       style="fill:none;stroke:#a7a9ac;stroke-width:1"
       id="path41"
       d="m 0,210 420,0"
       class="y-gridline" />
    <text
       style="font-size:12px;text-anchor:end;fill:#a7a9ac;font-family:helvetica"
       id="text43"
       y="210"
       x="-5"
       class="y-axis-label">$1.4</text>
    <text
       id="text2881"
       y="-37.246464"
       x="210.10907"
       style="font-size:16px;font-style:normal;font-weight:bold;text-align:center;text-anchor:middle;fill:#000000;fill-opacity:1;stroke:none;font-family:sans;-inkscape-font-specification:Andale Mono Bold"
       xml:space="preserve"><tspan
         id="tspan2885"
         y="-17.246464"
         x="210.10907"
         sodipodi:role="line" /></text>
  </g>
  <g
     id="g45"
     transform="translate(40,40)">
    <path
       style="fill:none;stroke:#bf5004;stroke-width:2"
       id="path47"
       d="m 35,23.181818 38,178.412332 39,-17.00963 39,-5.64082 39,-30.43047 39,-24.82331 39,-85.628839 39,125.061379 39,-59.90205 39,23.0874"
       class="series-1-line" />
  </g>
  <text
     style="font-size:12px;font-weight:normal;text-anchor:middle;fill:#58595b;font-family:sans-serif"
     id="text49"
     y="310"
     x="75"
     class="x-axis-label">2000</text>
  <path
     style="fill:none;stroke:#a7a9ac;stroke-width:1"
     id="path51"
     d="m 113.88889,295 0,5"
     class="x-notch" />
  <text
     style="font-size:12px;font-weight:normal;text-anchor:middle;fill:#58595b;font-family:sans-serif"
     id="text53"
     y="310"
     x="152.77777"
     class="x-axis-label">2002</text>
  <path
     style="fill:none;stroke:#a7a9ac;stroke-width:1"
     id="path55"
     d="m 191.66667,295 0,5"
     class="x-notch" />
  <text
     style="font-size:12px;font-weight:normal;text-anchor:middle;fill:#58595b;font-family:sans-serif"
     id="text57"
     y="310"
     x="230.55556"
     class="x-axis-label">2004</text>
  <path
     style="fill:none;stroke:#a7a9ac;stroke-width:1"
     id="path59"
     d="m 269.44444,295 0,5"
     class="x-notch" />
  <text
     style="font-size:12px;font-weight:normal;text-anchor:middle;fill:#58595b;font-family:sans-serif"
     id="text61"
     y="310"
     x="308.33334"
     class="x-axis-label">2006</text>
  <path
     style="fill:none;stroke:#a7a9ac;stroke-width:1"
     id="path63"
     d="m 347.22222,295 0,5"
     class="x-notch" />
  <text
     style="font-size:12px;font-weight:normal;text-anchor:middle;fill:#58595b;font-family:sans-serif"
     id="text65"
     y="310"
     x="386.11111"
     class="x-axis-label">2008</text>
  <path
     style="fill:none;stroke:#a7a9ac;stroke-width:1"
     id="path67"
     d="m 425,295 0,5"
     class="x-notch" />
  <text
     style="font-size:12px;font-weight:normal;text-anchor:middle;fill:#58595b;font-family:sans-serif"
     id="text57-6"
     y="329.5296"
     x="232.8856"
     class="x-axis-label">Fiscal Year</text>
</svg>
